**harm	**harte	**timestamp	**phrase	**leadinstrument	**kern
*M4/4	*M4/4	*	*	*	*
*D:	*D:	*	*	*	*D:
1r;	N	0	.	r	1r;
=1	=1	=1	=1	=1	=1
*>A_intro	*>A_intro	*>A_intro	*>A_intro	*>A_intro	*>A_intro
2I	D:maj	0.424	newline	guitar	2D 2f# 2a
4Vf	A:maj/4	1.144	.	guitar	4A 4cc# 4ee
4I	D:maj	1.503	.	guitar	4D 4f# 4a
=2	=2	=2	=2	=2	=2
4I	D:maj	1.863	.	guitar	4D 4f# 4a
4Vf	A:maj/4	2.222	.	guitar	4A 4cc# 4ee
4I	D:maj	2.582	.	guitar	4D 4f# 4a
4Vf	A:maj/4	2.942	.	guitar	4A 4cc# 4ee
=3	=3	=3	=3	=3	=3
2I	D:maj	3.301	.	guitar	2D 2f# 2a
4Vf	A:maj/4	4.02	.	guitar	4A 4cc# 4ee
4I	D:maj	4.38	.	guitar	4D 4f# 4a
=4	=4	=4	=4	=4	=4
4I	D:maj	4.739	.	guitar	4D 4f# 4a
4Vf	A:maj/4	5.099	.	guitar	4A 4cc# 4ee
2I	D:maj	5.459	.	guitar	2D 2f# 2a
=5	=5	=5	=5	=5	=5
2Vf	A:maj/4	6.178	newline	guitar	2A 2cc# 2ee
4I	D:maj	6.884	.	guitar	4D 4f# 4a
4I	D:sus4	7.236	.	guitar	4D 4f# 4a
=6	=6	=6	=6	=6	=6
1I	D:sus4	7.589	.	guitar	1D 1f# 1a
=7	=7	=7	=7	=7	=7
1I	D:sus4	9.001	.	guitar	1D 1f# 1a
=8	=8	=8	=8	=8	=8
1I	D:sus4	10.413	.	guitar	1D 1f# 1a
=9	=9	=9	=9	=9	=9
*>A_verse	*>A_verse	*>A_verse	*>A_verse	*>A_verse	*>A_verse
1I	D:maj	11.824	newline	voice	1D 1f# 1a
=10	=10	=10	=10	=10	=10
1I	D:maj	13.241	.	voice	1D 1f# 1a
=11	=11	=11	=11	=11	=11
2I	D:maj	14.659	.	voice	2D 2f# 2a
4Vf	A:maj/4	15.367	.	voice	4A 4cc# 4ee
4I	D:maj	15.721	.	voice	4D 4f# 4a
=12	=12	=12	=12	=12	=12
4I	D:maj	16.076	.	voice	4D 4f# 4a
4Vf	A:maj/4	16.43	.	voice	4A 4cc# 4ee
2I	D:maj	16.784	.	voice	2D 2f# 2a
=13	=13	=13	=13	=13	=13
*M2/4	*M2/4	*M2/4	*M2/4	*M2/4	*M2/4
2I	D:maj	17.493	.	voice	2D 2f# 2a
=14	=14	=14	=14	=14	=14
*M4/4	*M4/4	*M4/4	*M4/4	*M4/4	*M4/4
1I	D:maj	18.201	newline	voice	1D 1f# 1a
=15	=15	=15	=15	=15	=15
1I	D:maj	19.622	.	voice	1D 1f# 1a
=16	=16	=16	=16	=16	=16
1I	D:maj	21.042	.	voice	1D 1f# 1a
=17	=17	=17	=17	=17	=17
2Vf	A:maj/4	22.463	.	voice	2A 2cc# 2ee
4vib	B:min/b3	23.173	.	voice	4b 4D 4ff#
4V7f	A:7/4	23.528	.	voice	4A 4cc# 4ee 4gg
=18	=18	=18	=18	=18	=18
*M3/4	*M3/4	*M3/4	*M3/4	*M3/4	*M3/4
4V7f	A:7/4	23.883	.	voice	4A 4cc# 4ee 4gg
2iid	E:min/b7	24.239	.	voice	2e 2g 2b
=19	=19	=19	=19	=19	=19
*M4/4	*M4/4	*M4/4	*M4/4	*M4/4	*M4/4
1I	D:maj	24.949	newline	voice	1D 1f# 1a
=20	=20	=20	=20	=20	=20
1I	D:maj	26.367	.	voice	1D 1f# 1a
=21	=21	=21	=21	=21	=21
2.IVc	G:maj/5	27.785	.	voice	2g 2b 2D
4I	D:maj	28.849	.	voice	4D 4f# 4a
=22	=22	=22	=22	=22	=22
4I	D:maj	29.203	.	voice	4D 4f# 4a
4IVc	G:maj/5	29.558	.	voice	4g 4b 4D
2I	D:maj	29.912	.	voice	2D 2f# 2a
=23	=23	=23	=23	=23	=23
*M2/4	*M2/4	*M2/4	*M2/4	*M2/4	*M2/4
2I	D:maj	30.621	.	voice	2D 2f# 2a
=24	=24	=24	=24	=24	=24
*M4/4	*M4/4	*M4/4	*M4/4	*M4/4	*M4/4
1I	D:maj	31.33	newline	voice	1D 1f# 1a
=25	=25	=25	=25	=25	=25
1I	D:maj	32.727	.	voice	1D 1f# 1a
=26	=26	=26	=26	=26	=26
1I	D:maj	34.124	.	voice	1D 1f# 1a
=27	=27	=27	=27	=27	=27
2Vb	A:maj/3	35.521	.	voice	2a 2C# 2ee
4Ig	D:maj/6	36.219	.	voice	4D 4f# 4a
4V	A:maj	36.568	.	voice	4A 4cc# 4ee
=28	=28	=28	=28	=28	=28
4V	A:maj	36.918	.	voice	4A 4cc# 4ee
4If	D:maj/4	37.267	.	voice	4D 4f# 4a
4Vg	A:maj/6	37.616	.	voice	4A 4cc# 4ee
4Ie	D:maj/2	37.965	.	voice	4D 4f# 4a
=29	=29	=29	=29	=29	=29
*>A_verse	*>A_verse	*>A_verse	*>A_verse	*>A_verse	*>A_verse
1I	D:maj	38.315	newline	voice	1D 1f# 1a
=30	=30	=30	=30	=30	=30
1I	D:maj	39.723	.	voice	1D 1f# 1a
=31	=31	=31	=31	=31	=31
2I	D:maj	41.132	.	voice	2D 2f# 2a
4Vf	A:maj/4	41.836	.	voice	4A 4cc# 4ee
4I	D:maj	42.189	.	voice	4D 4f# 4a
=32	=32	=32	=32	=32	=32
4I	D:maj	42.541	.	voice	4D 4f# 4a
4Vf	A:maj/4	42.893	.	voice	4A 4cc# 4ee
2I	D:maj	43.245	.	voice	2D 2f# 2a
=33	=33	=33	=33	=33	=33
*M2/4	*M2/4	*M2/4	*M2/4	*M2/4	*M2/4
2I	D:maj	43.95	.	voice	2D 2f# 2a
=34	=34	=34	=34	=34	=34
*M4/4	*M4/4	*M4/4	*M4/4	*M4/4	*M4/4
1I	D:maj	44.654	newline	voice	1D 1f# 1a
=35	=35	=35	=35	=35	=35
1I	D:maj	46.05	.	voice	1D 1f# 1a
=36	=36	=36	=36	=36	=36
1I	D:maj	47.446	.	voice	1D 1f# 1a
=37	=37	=37	=37	=37	=37
2Vf	A:maj/4	48.841	.	voice	2A 2cc# 2ee
4I	D:maj	49.539	.	voice	4D 4f# 4a
4Vf	A:maj/4	49.888	.	voice	4A 4cc# 4ee
=38	=38	=38	=38	=38	=38
*M3/4	*M3/4	*M3/4	*M3/4	*M3/4	*M3/4
4Vf	A:maj/4	50.237	.	voice	4A 4cc# 4ee
2iid	E:min/b7	50.586	.	voice	2e 2g 2b
=39	=39	=39	=39	=39	=39
*M4/4	*M4/4	*M4/4	*M4/4	*M4/4	*M4/4
1I	D:maj	51.284	newline	voice	1D 1f# 1a
=40	=40	=40	=40	=40	=40
1I	D:maj	52.71	.	voice	1D 1f# 1a
=41	=41	=41	=41	=41	=41
2.IVc	G:maj/5	54.135	.	voice	2g 2b 2D
4I	D:maj	55.205	.	voice	4D 4f# 4a
=42	=42	=42	=42	=42	=42
4I	D:maj	55.561	.	voice	4D 4f# 4a
4IVc	G:maj/5	55.917	.	voice	4g 4b 4D
2I	D:maj	56.274	.	voice	2D 2f# 2a
=43	=43	=43	=43	=43	=43
*M2/4	*M2/4	*M2/4	*M2/4	*M2/4	*M2/4
2I	D:maj	56.987	.	voice	2D 2f# 2a
=44	=44	=44	=44	=44	=44
*M4/4	*M4/4	*M4/4	*M4/4	*M4/4	*M4/4
1I	D:maj	57.699	newline	voice	1D 1f# 1a
=45	=45	=45	=45	=45	=45
1I	D:maj	59.075	.	voice	1D 1f# 1a
=46	=46	=46	=46	=46	=46
1I	D:maj	60.451	.	voice	1D 1f# 1a
=47	=47	=47	=47	=47	=47
2V7	A:7	61.826	.	voice	2A 2cc# 2ee 2gg
2V7c	A:7/5	62.514	.	voice	2a 2cc# 2E 2gg
=48	=48	=48	=48	=48	=48
2V7	A:7	63.202	.	voice	2A 2cc# 2ee 2gg
2V7c	A:7/5	63.889	.	voice	2a 2cc# 2E 2gg
=49	=49	=49	=49	=49	=49
2V7b	A:7/3	64.577	.	voice	2a 2C# 2ee 2gg
4V7e	A:7/2	65.265	.	voice	4A 4cc# 4ee 4gg
4V7	A:7	65.609	.	voice	4A 4cc# 4ee 4gg
=50	=50	=50	=50	=50	=50
4V7	A:7	65.953	.	voice	4A 4cc# 4ee 4gg
4V7d	A:7/b7	66.297	.	voice	4a 4cc# 4ee 4G
4V7g	A:7/6	66.641	.	voice	4A 4cc# 4ee 4gg
4V7c	A:7/5	66.984	.	voice	4a 4cc# 4E 4gg
=51	=51	=51	=51	=51	=51
*>B_chorus	*>B_chorus	*>B_chorus	*>B_chorus	*>B_chorus	*>B_chorus
1I	D:maj	67.328	newline	voice	1D 1f# 1a
=52	=52	=52	=52	=52	=52
1I	D:maj	68.697	.	voice	1D 1f# 1a
=53	=53	=53	=53	=53	=53
1IV	G:maj	70.066	.	voice	1G 1b 1dd
=54	=54	=54	=54	=54	=54
1IV	G:maj	71.434	.	voice	1G 1b 1dd
=55	=55	=55	=55	=55	=55
*M3/4	*M3/4	*M3/4	*M3/4	*M3/4	*M3/4
2.IV	G:maj	72.803	.	voice	2G 2b 2dd
=56	=56	=56	=56	=56	=56
*M4/4	*M4/4	*M4/4	*M4/4	*M4/4	*M4/4
1I	D:maj	73.829	.	voice	1D 1f# 1a
=57	=57	=57	=57	=57	=57
1I	D:maj	75.198	newline	voice	1D 1f# 1a
=58	=58	=58	=58	=58	=58
1I	D:maj	76.6	.	voice	1D 1f# 1a
=59	=59	=59	=59	=59	=59
1IV	G:maj	78.002	.	voice	1G 1b 1dd
=60	=60	=60	=60	=60	=60
1IV	G:maj	79.405	.	voice	1G 1b 1dd
=61	=61	=61	=61	=61	=61
1IV	G:maj	80.807	.	voice	1G 1b 1dd
=62	=62	=62	=62	=62	=62
2V7	A:7	82.209	newline	.	2A 2cc# 2ee 2gg
2V7c	A:7/5	82.889	.	.	2a 2cc# 2E 2gg
=63	=63	=63	=63	=63	=63
2V7	A:7	83.57	.	.	2A 2cc# 2ee 2gg
2V7c	A:7/5	84.251	.	.	2a 2cc# 2E 2gg
=64	=64	=64	=64	=64	=64
2V7	A:7	84.931	.	.	2A 2cc# 2ee 2gg
2V7c	A:7/5	85.612	.	.	2a 2cc# 2E 2gg
=65	=65	=65	=65	=65	=65
2V7	A:7	86.292	.	.	2A 2cc# 2ee 2gg
2V7c	A:7/5	86.973	.	.	2a 2cc# 2E 2gg
=66	=66	=66	=66	=66	=66
*>A_verse	*>A_verse	*>A_verse	*>A_verse	*>A_verse	*>A_verse
1I	D:maj	87.653	newline	.	1D 1f# 1a
=67	=67	=67	=67	=67	=67
1I	D:maj	89.056	.	.	1D 1f# 1a
=68	=68	=68	=68	=68	=68
2I	D:maj	90.458	.	.	2D 2f# 2a
4Vf	A:maj/4	91.159	.	.	4A 4cc# 4ee
4I	D:maj	91.509	.	.	4D 4f# 4a
=69	=69	=69	=69	=69	=69
4I	D:maj	91.86	.	.	4D 4f# 4a
4Vf	A:maj/4	92.211	.	.	4A 4cc# 4ee
2I	D:maj	92.561	.	.	2D 2f# 2a
=70	=70	=70	=70	=70	=70
*M2/4	*M2/4	*M2/4	*M2/4	*M2/4	*M2/4
2I	D:maj	93.262	.	.	2D 2f# 2a
=71	=71	=71	=71	=71	=71
*M4/4	*M4/4	*M4/4	*M4/4	*M4/4	*M4/4
1I	D:maj	93.963	newline	.	1D 1f# 1a
=72	=72	=72	=72	=72	=72
1I	D:maj	95.347	.	.	1D 1f# 1a
=73	=73	=73	=73	=73	=73
1I	D:maj	96.73	.	.	1D 1f# 1a
=74	=74	=74	=74	=74	=74
2Vf	A:maj/4	98.114	.	.	2A 2cc# 2ee
4vib	B:min/b3	98.806	.	.	4b 4D 4ff#
4V7f	A:7/4	99.151	.	.	4A 4cc# 4ee 4gg
=75	=75	=75	=75	=75	=75
*M3/4	*M3/4	*M3/4	*M3/4	*M3/4	*M3/4
4V7f	A:7/4	99.497	.	.	4A 4cc# 4ee 4gg
2iid	E:min/b7	99.843	.	.	2e 2g 2b
=76	=76	=76	=76	=76	=76
*M4/4	*M4/4	*M4/4	*M4/4	*M4/4	*M4/4
1I	D:maj	100.535	newline	.	1D 1f# 1a
=77	=77	=77	=77	=77	=77
1I	D:maj	101.923	.	.	1D 1f# 1a
=78	=78	=78	=78	=78	=78
2.IVc	G:maj/5	103.312	.	.	2g 2b 2D
4I	D:maj	104.353	.	.	4D 4f# 4a
=79	=79	=79	=79	=79	=79
4I	D:maj	104.7	.	.	4D 4f# 4a
4IVc	G:maj/5	105.048	.	.	4g 4b 4D
2I	D:maj	105.395	.	.	2D 2f# 2a
=80	=80	=80	=80	=80	=80
*M2/4	*M2/4	*M2/4	*M2/4	*M2/4	*M2/4
2I	D:maj	106.089	.	.	2D 2f# 2a
=81	=81	=81	=81	=81	=81
*M4/4	*M4/4	*M4/4	*M4/4	*M4/4	*M4/4
1I	D:maj	106.783	newline	.	1D 1f# 1a
=82	=82	=82	=82	=82	=82
1I	D:maj	108.165	.	.	1D 1f# 1a
=83	=83	=83	=83	=83	=83
1I	D:maj	109.546	.	.	1D 1f# 1a
=84	=84	=84	=84	=84	=84
2V7	A:7	110.927	.	.	2A 2cc# 2ee 2gg
2V7c	A:7/5	111.618	.	.	2a 2cc# 2E 2gg
=85	=85	=85	=85	=85	=85
2V7	A:7	112.308	.	.	2A 2cc# 2ee 2gg
2V7c	A:7/5	112.999	.	.	2a 2cc# 2E 2gg
=86	=86	=86	=86	=86	=86
2V7	A:7	113.69	.	.	2A 2cc# 2ee 2gg
2V7c	A:7/5	114.38	.	.	2a 2cc# 2E 2gg
=87	=87	=87	=87	=87	=87
2V7	A:7	115.071	.	.	2A 2cc# 2ee 2gg
2V7c	A:7/5	115.762	.	.	2a 2cc# 2E 2gg
=88	=88	=88	=88	=88	=88
*>B_chorus	*>B_chorus	*>B_chorus	*>B_chorus	*>B_chorus	*>B_chorus
1I	D:maj	116.452	newline	.	1D 1f# 1a
=89	=89	=89	=89	=89	=89
1I	D:maj	117.814	.	.	1D 1f# 1a
=90	=90	=90	=90	=90	=90
1IV	G:maj	119.175	.	.	1G 1b 1dd
=91	=91	=91	=91	=91	=91
1IV	G:maj	120.537	.	.	1G 1b 1dd
=92	=92	=92	=92	=92	=92
*M3/4	*M3/4	*M3/4	*M3/4	*M3/4	*M3/4
2.IV	G:maj	121.898	.	.	2G 2b 2dd
=93	=93	=93	=93	=93	=93
*M4/4	*M4/4	*M4/4	*M4/4	*M4/4	*M4/4
1I	D:maj	122.919	.	.	1D 1f# 1a
=94	=94	=94	=94	=94	=94
1I	D:maj	124.281	newline	.	1D 1f# 1a
=95	=95	=95	=95	=95	=95
1I	D:maj	125.658	.	.	1D 1f# 1a
=96	=96	=96	=96	=96	=96
1IV	G:maj	127.036	.	.	1G 1b 1dd
=97	=97	=97	=97	=97	=97
1IV	G:maj	128.414	.	.	1G 1b 1dd
=98	=98	=98	=98	=98	=98
1IV	G:maj	129.792	.	.	1G 1b 1dd
=99	=99	=99	=99	=99	=99
2I	D:maj	131.169	newline	.	2D 2f# 2a
4Vf	A:maj/4	131.846	.	.	4A 4cc# 4ee
4I	D:maj	132.185	.	.	4D 4f# 4a
=100	=100	=100	=100	=100	=100
4I	D:maj	132.523	.	.	4D 4f# 4a
4Vf	A:maj/4	132.862	.	.	4A 4cc# 4ee
4I	D:maj	133.201	.	.	4D 4f# 4a
4Vf	A:maj/4	133.539	.	.	4A 4cc# 4ee
=101	=101	=101	=101	=101	=101
2I	D:maj	133.878	.	.	2D 2f# 2a
4Vf	A:maj/4	134.555	.	.	4A 4cc# 4ee
4I	D:maj	134.893	.	.	4D 4f# 4a
=102	=102	=102	=102	=102	=102
4I	D:maj	135.232	.	.	4D 4f# 4a
4Vf	A:maj/4	135.57	.	.	4A 4cc# 4ee
2I	D:maj	135.909	.	.	2D 2f# 2a
=103	=103	=103	=103	=103	=103
1V7	A:7	136.586	newline	.	1A 1cc# 1ee 1gg
=104	=104	=104	=104	=104	=104
1V7	A:7	137.95	.	.	1A 1cc# 1ee 1gg
=105	=105	=105	=105	=105	=105
1V7	A:7	139.313	.	.	1A 1cc# 1ee 1gg
=106	=106	=106	=106	=106	=106
1V7	A:7	140.677	.	.	1A 1cc# 1ee 1gg
=107	=107	=107	=107	=107	=107
*>B_outro	*>B_outro	*>B_outro	*>B_outro	*>B_outro	*>B_outro
1I	D:maj	142.041	newline	.	1D 1f# 1a
=108	=108	=108	=108	=108	=108
1I	D:maj	143.413	.	.	1D 1f# 1a
=109	=109	=109	=109	=109	=109
1I	D:maj	144.785	.	.	1D 1f# 1a
=110	=110	=110	=110	=110	=110
1I	D:maj	146.157	.	.	1D 1f# 1a
=111	=111	=111	=111	=111	=111
1I	D:maj	147.53	newline	voice	1D 1f# 1a
=112	=112	=112	=112	=112	=112
1I	D:maj	148.904	.	voice	1D 1f# 1a
=113	=113	=113	=113	=113	=113
1I	D:maj	150.278	.	voice	1D 1f# 1a
1r;	N	156.117	.	r	1r;
1r;	N	159.765	.	r	1r;
*-	*-	*-	*-	*-	*-
!!!OTL: It Amazes Me
!!!COC: John Denver
!!!BillboardChartDate: 1978/03/18
!!!BillboardPeak: 59
!!!BillboardWeeksOnChart: 7
!!!SampleTargetRank: 66
!!!SampleActualRank: 68
!!!SampleID#: 0245
!!!RDF**harmony: **recip + pitch class of root + harmonic quality
!!!RDF**harte: Chris Harte's syntax, used by MIREX
!!!RDF**phrase: newline = linebreak in original McGill transcription
!!!RDF**timestamp: McGill audio timestamp in seconds
!!!RDF**leadinstrument: original McGill primary instrumentation annotation
!!!RDT: 2017/01/12/
!!!ENC: Nathaniel Condit-Schultz
!!!EST: Awating manual error checking and editing.
